apps/symbolic/alacritty.svg

<?xml version="1.0" encoding="UTF-8" standalone="no"?>
<svg
   height="16px"
   viewBox="0 0 16 16"
   width="16px"
   version="1.1"
   id="svg204"
   xml:space="preserve"
   xmlns="http://www.w3.org/2000/svg"
   xmlns:svg="http://www.w3.org/2000/svg"><defs
     id="defs208" /><path
     d="m 2.1875 1 c -1.207031 0 -2.1875 1.015625 -2.1875 2.21875 v 9.5625 c 0 1.203125 0.980469 2.21875 2.1875 2.21875 h 11.625 c 1.207031 0 2.1875 -1.015625 2.1875 -2.21875 v -9.5625 c 0 -1.203125 -0.980469 -2.21875 -2.1875 -2.21875 z m 0 2 h 11.625 c 0.121094 0 0.1875 0.082031 0.1875 0.21875 v 9.5625 c 0 0.136719 -0.066406 0.21875 -0.1875 0.21875 h -11.625 c -0.121094 0 -0.1875 -0.082031 -0.1875 -0.21875 v -9.5625 c 0 -0.136719 0.066406 -0.21875 0.1875 -0.21875 z m 0 0"
     id="path198" /><g
     clip-rule="evenodd"
     fill-rule="evenodd"
     id="g802"
     style="display:inline;"
     transform="matrix(0.30794408,0,0,0.30794408,0.60934208,-4.3177478)"><path
       d="m 21.932,41.828 -0.93164,2.1719 3,9 3,-9 -0.93164,-2.1719 z"
       enable-background="new"
       id="path796" /><path
       d="m 22,27 -9,23 h 4 l 7,-17 7,17 h 4 L 26,27 Z"
       enable-background="new"
       id="path798" /><path
       d="M 24,37 21.9316,41.8281 24,47 26.0684,41.8281 Z"
       enable-background="new"
       id="path800" /></g></svg>

<?xml version="1.0" encoding="UTF-8" standalone="no"?>
<svg
   height="16px"
   viewBox="0 0 16 16"
   width="16px"
   version="1.1"
   id="svg204"
   xml:space="preserve"
   xmlns="http://www.w3.org/2000/svg"
   xmlns:svg="http://www.w3.org/2000/svg"><defs
     id="defs208" /><path
     d="M 2.1875,1 C 0.980469,1 0,2.015625 0,3.21875 v 9.5625 C 0,13.984375 0.980469,15 2.1875,15 h 11.625 C 15.019531,15 16,13.984375 16,12.78125 V 3.21875 C 16,2.015625 15.019531,1 13.8125,1 Z m 0,2 h 11.625 C 13.933594,3 14,3.082031 14,3.21875 v 9.5625 C 14,12.917969 13.933594,13 13.8125,13 H 2.1875 C 2.066406,13 2,12.917969 2,12.78125 V 3.21875 C 2,3.082031 2.066406,3 2.1875,3 Z m 0,0"
     id="path198"
     style="display:inline;fill:#000000;fill-opacity:1" /><g
     clip-rule="evenodd"
     fill-rule="evenodd"
     id="g802"
     style="display:inline;fill:#000000;fill-opacity:1"
     transform="matrix(0.30794408,0,0,0.30794408,0.60934208,-4.3177478)"><path
       d="m 21.932,41.828 -0.93164,2.1719 3,9 3,-9 -0.93164,-2.1719 z"
       enable-background="new"
       id="path796"
       style="fill:#000000;fill-opacity:1" /><path
       d="m 22,27 -9,23 h 4 l 7,-17 7,17 h 4 L 26,27 Z"
       enable-background="new"
       id="path798"
       style="fill:#000000;fill-opacity:1" /><path
       d="M 24,37 21.9316,41.8281 24,47 26.0684,41.8281 Z"
       enable-background="new"
       id="path800"
       style="fill:#000000;fill-opacity:1" /></g></svg>
